X: 3090
T: Mrs Mc KENZIE OF APPLECROSS
C: Joseph Lowe
Q:"Reel."
R: Reel.
%R:reel
B: James Kerr "Merry Melodies" v.3 p.12 #90
Z: 2016 John Chambers <jc:trillian.mit.edu>
M: C
L: 1/8
K: A
ug |\
a2ec (bB)Bd | cA (c/d/e) a2eg |\
fgaf bBBd | cA (c/d/e) a2a ::\
e |\
cAdc BGEd |
cAeA fAeg |\
[1 afec BGEd | cA (c/d/e) a2ae :|\
[2 fgaf bBBd | cA (c/d/e) a2a |]

%%sep 1 1 500
%%sep 1 1 500

